X: 21949
T: Kitty In The Lane
R: reel
M: 4/4
K: Dmixolydian
dcAB c2c A|GEED c2c e|dcAB cBcA|GEcE EDD2|
dcAB c2c A|GEE/E/D cBce|dcAB cded|cAGE EDD2||
Adde fded|cBca gece|dd/d/de fdcd|eaa/a/a gece|
d3e fded|cBcd efg2|afge B/c/d ed|cAGE EDD2||

